X:9
T:Dean Bridge o' Edinburgh
M:4/4
L:1/8
C:Archie Allen
S:Barbara McOwen
R:Strathspey
K:Eb
G|"Eb"B>c B<e B<G G>F|"Eb"E>F "Bb"E/F/G/F/ "Eb"E<B, B,2|"Ab"C>E "Eb"B,>E
"Fm"A,>E "Eb"G,>E|"F7"C<F F>E "Bb"D/E/F/D/B,2|!
"Eb"B>c B<e B<G G>F|"Eb"E>F "Bb"E/F/G/F/ "Eb"E<B, B,2|"Ab"C>A "Eb"B,>G
"Fm"A,>F "Eb"G,>c| "Bb"B>c B<[A,D]  [G2,E2] E||!
f|"Eb"g<e e>g "Bb"f<d d>f|"Cm"e<d "F7"c>=a "Bb"b<B B>_d|"Ab"c<A A>c "Eb"
B<
G G>B|
"F7"c<F F>E "Bb"D/E/F/D/ B,>F|!
"Eb"G<E E>G "Bb"F<D D>F|"Cm"E<C "F7"C>=A "Bb"B<B, B,2|"Ab"C>A "Eb"B,>G
"Fm"A,>F "Eb"G,>c| "Bb"B>c B<[A,D]  [G2,E2] E||!
